SVG_Azure_Grouped/Storage/Disk Pool.svg

<?xml version="1.0" encoding="UTF-8" standalone="no"?>
<!-- Generated by Microsoft Visio, SVG Export Disk Pool.svg Page-1 -->

<svg
   xmlns:dc="http://purl.org/dc/elements/1.1/"
   xmlns:cc="http://creativecommons.org/ns#"
   xmlns:rdf="http://www.w3.org/1999/02/22-rdf-syntax-ns#"
   xmlns:svg="http://www.w3.org/2000/svg"
   xmlns="http://www.w3.org/2000/svg"
   xmlns:sodipodi="http://sodipodi.sourceforge.net/DTD/sodipodi-0.dtd"
   xmlns:inkscape="http://www.inkscape.org/namespaces/inkscape"
   width="0.78747386in"
   height="0.74819434in"
   viewBox="0 0 56.69787 53.870172"
   xml:space="preserve"
   class="st8"
   version="1.1"
   id="svg106"
   sodipodi:docname="Disk Pool.svg"
   style="font-size:12px;overflow:visible;color-interpolation-filters:sRGB;fill:none;fill-rule:evenodd;stroke-linecap:square;stroke-miterlimit:3"
   inkscape:version="0.92.5 (2060ec1f9f, 2020-04-08)"><metadata
   id="metadata110"><rdf:RDF><cc:Work
       rdf:about=""><dc:format>image/svg+xml</dc:format><dc:type
         rdf:resource="http://purl.org/dc/dcmitype/StillImage" /></cc:Work></rdf:RDF></metadata><sodipodi:namedview
   pagecolor="#ffffff"
   bordercolor="#666666"
   borderopacity="1"
   objecttolerance="10"
   gridtolerance="10"
   guidetolerance="10"
   inkscape:pageopacity="0"
   inkscape:pageshadow="2"
   inkscape:window-width="640"
   inkscape:window-height="480"
   id="namedview108"
   showgrid="false"
   inkscape:zoom="1.4806561"
   inkscape:cx="37.796955"
   inkscape:cy="34.345988"
   inkscape:window-x="0"
   inkscape:window-y="0"
   inkscape:window-maximized="0"
   inkscape:current-layer="svg106" />
	<style
   type="text/css"
   id="style2">
	<![CDATA[
		.st1 {fill:#0078d4;stroke:none;stroke-linecap:butt;stroke-width:31.6621}
		.st2 {fill:url(#grad0-8);stroke:none;stroke-linecap:butt;stroke-width:31.6621}
		.st3 {fill:#005ba1;stroke:none;stroke-linecap:butt;stroke-width:31.6621}
		.st4 {fill:#5ea0ef;stroke:none;stroke-linecap:butt;stroke-width:31.6621}
		.st5 {fill:url(#grad0-20);stroke:none;stroke-linecap:butt;stroke-width:31.6621}
		.st6 {fill:#949494;stroke:none;stroke-linecap:butt;stroke-width:31.6621}
		.st7 {fill:#a3a3a3;stroke:none;stroke-linecap:butt;stroke-width:31.6621}
		.st8 {fill:none;fill-rule:evenodd;font-size:12px;overflow:visible;stroke-linecap:square;stroke-miterlimit:3}
	]]>
	</style>

	<defs
   id="Patterns_And_Gradients">
		<linearGradient
   id="grad0-8"
   x1="0"
   y1="170.44003"
   x2="17.550385"
   y2="170.44003"
   gradientTransform="scale(1.5726151,0.6358835)"
   gradientUnits="userSpaceOnUse">
			<stop
   offset="0"
   stop-color="#5ea0ef"
   stop-opacity="1"
   id="stop4" />
			<stop
   offset="0.2"
   stop-color="#83b9f9"
   stop-opacity="1"
   id="stop6" />
			<stop
   offset="0.5"
   stop-color="#83b9f9"
   stop-opacity="1"
   id="stop8" />
			<stop
   offset="0.75"
   stop-color="#83b9f9"
   stop-opacity="1"
   id="stop10" />
			<stop
   offset="0.9"
   stop-color="#6facf4"
   stop-opacity="1"
   id="stop12" />
			<stop
   offset="1"
   stop-color="#5ea0ef"
   stop-opacity="1"
   id="stop14" />
		</linearGradient>
		<linearGradient
   id="grad0-20"
   x1="-1.1302119e-15"
   y1="170.32205"
   x2="17.562612"
   y2="170.32205"
   gradientTransform="scale(1.5717025,0.63625274)"
   gradientUnits="userSpaceOnUse">
			<stop
   offset="0"
   stop-color="#5ea0ef"
   stop-opacity="1"
   id="stop17" />
			<stop
   offset="0.2"
   stop-color="#83b9f9"
   stop-opacity="1"
   id="stop19" />
			<stop
   offset="0.5"
   stop-color="#83b9f9"
   stop-opacity="1"
   id="stop21" />
			<stop
   offset="0.75"
   stop-color="#83b9f9"
   stop-opacity="1"
   id="stop23" />
			<stop
   offset="0.9"
   stop-color="#6facf4"
   stop-opacity="1"
   id="stop25" />
			<stop
   offset="1"
   stop-color="#5ea0ef"
   stop-opacity="1"
   id="stop27" />
		</linearGradient>
	</defs>
	<g
   id="g104"
   transform="translate(-31.661153,-31.660408)">
		<title
   id="title31">Page-1</title>
		<g
   id="group20347-1"
   transform="translate(31.6621,-34.0157)">
			<title
   id="title33">Disk Pool.20347</title>
			<g
   id="group20348-2">
				<title
   id="title35">layer1</title>
				<g
   id="shape20349-3"
   transform="translate(9.80499,-20.3699)">
					<title
   id="title37">path2</title>
					<path
   d="m 9.78,118.82 a 5.08661,5.01568 0 0 1 -2.21,-3.93 v -2.26 a 4.13543,4.07776 0 0 1 -0.05,-0.77 c 0,-2.88 2.77,-4.94 6.63,-6.15 H 13.8 C 6.18,105.71 0,108.22 0,111.3 a 2.49134,2.4566 -180 0 0 0.07,0.58 v 2.45 c 0,2.39 3.8,4.41 8.97,5.21 a 6.75591,6.66169 0 0 1 0.74,-0.72 z"
   class="st1"
   id="path39"
   inkscape:connector-curvature="0"
   style="fill:#0078d4;stroke:none;stroke-width:31.66209984;stroke-linecap:butt" />
				</g>
				<g
   id="shape20350-5"
   transform="translate(9.86772,-34.0722)">
					<title
   id="title42">path4</title>
					<path
   d="m 22.84,118.16 c 2.9,-1.03 4.76,-2.52 4.76,-4.19 0,-3.09 -6.18,-5.59 -13.8,-5.59 -7.62,0 -13.8,2.5 -13.8,5.59 0,3.09 6.1,5.55 13.65,5.57 a 30.0472,29.6282 0 0 1 9.19,-1.38 z"
   class="st2"
   id="path44"
   inkscape:connector-curvature="0"
   style="fill:url(#grad0-8);stroke:none;stroke-width:31.66209984;stroke-linecap:butt" />
				</g>
				<g
   id="shape20351-9"
   transform="translate(19.4362,-38.4853)">
					<title
   id="title47">ellipse6</title>
					<ellipse
   cx="4.5826802"
   cy="118.309"
   rx="4.5826802"
   ry="1.23296"
   class="st3"
   id="ellipse49"
   style="fill:#005ba1;stroke:none;stroke-width:31.66209984;stroke-linecap:butt" />
				</g>
				<g
   id="shape20352-11"
   transform="translate(9.88713,-31.4168)">
					<title
   id="title52">path8</title>
					<path
   d="m 23.08,115.5 a 33.9843,33.5103 0 0 1 4.06,0.26 2.66142,2.6243 -180 0 0 0.43,-1.26 v -3.3 c 0,1.75 -1.95,3.28 -5.07,4.31 z m -9.03,1.27 h -0.19 c -7.69,0 -13.86,-2.51 -13.8,-5.59 v 3.16 c 0,2.38 3.76,4.39 8.89,5.2 a 12.4189,12.2457 0 0 1 5.1,-2.77 z"
   class="st4"
   id="path54"
   inkscape:connector-curvature="0"
   style="fill:#5ea0ef;stroke:none;stroke-width:31.66209984;stroke-linecap:butt" />
				</g>
				<g
   id="shape20353-13"
   transform="translate(19.1024,-8.41311)">
					<title
   id="title57">path10</title>
					<path
   d="m 27.6,110.92 c 0,-3.08 -6.18,-5.59 -13.8,-5.59 -7.62,0 -13.8,2.51 -13.8,5.59 a 2.46614,2.43175 -180 0 0 0.07,0.58 v 2.45 c 0,3.09 6.33,5.59 13.8,5.59 7.47,0 13.55,-2.45 13.8,-5.44 l -0.07,-2.33 z"
   class="st1"
   id="path59"
   inkscape:connector-curvature="0"
   style="fill:#0078d4;stroke:none;stroke-width:31.66209984;stroke-linecap:butt" />
				</g>
				<g
   id="shape20354-15"
   transform="translate(28.6678,-15.8728)">
					<title
   id="title62">ellipse12</title>
					<ellipse
   cx="4.5826802"
   cy="118.309"
   rx="4.5826802"
   ry="1.23296"
   class="st3"
   id="ellipse64"
   style="fill:#005ba1;stroke:none;stroke-width:31.66209984;stroke-linecap:butt" />
				</g>
				<g
   id="shape20355-17"
   transform="translate(19.1653,-22.4663)">
					<title
   id="title67">ellipse14</title>
					<ellipse
   cx="13.8016"
   cy="113.955"
   rx="13.8016"
   ry="5.5871301"
   class="st5"
   id="ellipse69"
   style="fill:url(#grad0-20);stroke:none;stroke-width:31.66209984;stroke-linecap:butt" />
				</g>
				<g
   id="shape20356-21"
   transform="translate(28.7339,-26.8919)">
					<title
   id="title72">ellipse16</title>
					<ellipse
   cx="4.5826802"
   cy="118.309"
   rx="4.5826802"
   ry="1.23296"
   class="st3"
   id="ellipse74"
   style="fill:#005ba1;stroke:none;stroke-width:31.66209984;stroke-linecap:butt" />
				</g>
				<g
   id="shape20357-23"
   transform="translate(19.0907,-19.3109)">
					<title
   id="title77">path18</title>
					<path
   d="m 13.87,116.37 c 7.64,0 13.8,-2.51 13.8,-5.59 v 3.32 c -0.26,2.99 -6.33,5.44 -13.8,5.44 -7.47,0 -13.8,-2.5 -13.8,-5.59 v -3.17 c -0.07,3.08 6.11,5.59 13.8,5.59 z"
   class="st4"
   id="path79"
   inkscape:connector-curvature="0"
   style="fill:#5ea0ef;stroke:none;stroke-width:31.66209984;stroke-linecap:butt" />
				</g>
				<g
   id="shape20358-25"
   transform="translate(0,-0.0248295)">
					<title
   id="title82">path20</title>
					<path
   d="m 0,113.09 a 0.548032,0.540389 -180 0 0 0.271411,0.466 L 4.12,115.76 l 6.53,3.73 a 0.532283,0.524861 -180 0 0 0.730908,-0.18899 L 13.59,115.52 a 0.551181,0.543495 -180 0 0 -0.198799,-0.73245 L 5.74,110.44 A 0.532283,0.524861 0 0 1 5.468588,109.97753 L 5.47,75.32 A 0.532283,0.524861 0 0 1 5.741412,74.857525 L 13.39,70.48 a 0.551181,0.543495 -180 0 0 0.198799,-0.730102 L 11.39,65.97 A 0.541732,0.534178 -180 0 0 10.656711,65.768104 L 4.25,69.44 0.27,71.72 a 0.541732,0.534178 -180 0 0 -0.271411,0.46248 z"
   class="st6"
   id="path84"
   inkscape:connector-curvature="0"
   style="fill:#949494;stroke:none;stroke-width:31.66209984;stroke-linecap:butt" />
				</g>
				<g
   id="shape20359-27"
   transform="translate(3.547e-4)">
					<title
   id="title87">path22</title>
					<path
   d="m 13.59,69.72 -2.2,-3.77 a 0.538583,0.531072 -180 0 0 -0.547585,-0.260584 0.507087,0.500015 -180 0 0 -0.271411,0.07043 L 4.17,69.42 0.19,71.7 a 0.551181,0.543495 -180 0 0 -0.191657,0.186636 L 0.06,71.92 A 0.544882,0.537284 -180 0 0 4.778e-4,72.159454 L 5.48,75.29 A 0.525984,0.518649 0 0 1 5.751412,74.82752 L 13.39,70.45 a 0.551181,0.543495 -180 0 0 0.198799,-0.730106 z m 0,45.79 -2.21,3.77 a 0.541732,0.534178 0 0 1 -0.54759,0.26058 0.507087,0.500015 0 0 1 -0.271411,-0.0704 L 4.16,115.81 0.19,113.53 a 0.56063,0.552812 0 0 1 -0.191657,-0.18898 L 0.06,113.31 A 0.519685,0.512438 0 0 1 4.778e-4,113.0682 L 5.48,109.93 a 0.532283,0.524861 -180 0 0 0.271412,0.46248 L 13.39,114.77 a 0.551181,0.543495 0 0 1 0.198799,0.73245 z"
   class="st7"
   id="path89"
   inkscape:connector-curvature="0"
   style="fill:#a3a3a3;stroke:none;stroke-width:31.66209984;stroke-linecap:butt" />
				</g>
				<g
   id="shape20360-29"
   transform="translate(43.0469,-0.0155476)">
					<title
   id="title92">path24</title>
					<path
   d="M 13.65,72.17 A 0.548032,0.540389 -180 0 0 13.378591,71.703999 L 9.53,69.51 2.99,65.77 A 0.532283,0.524861 -180 0 0 2.259091,65.958984 L 0.05,69.73 a 0.551181,0.543495 -180 0 0 0.1988,0.732454 L 7.89,74.83 a 0.532283,0.524861 0 0 1 0.271409,0.462475 L 8.16,109.95 a 0.532283,0.524861 0 0 1 -0.271409,0.46248 L 0.25,114.79 a 0.551181,0.543495 -180 0 0 -0.1988,0.73011 L 2.26,119.29 a 0.541732,0.534178 -180 0 0 0.733289,0.2019 L 9.39,115.83 l 3.98,-2.28 a 0.541732,0.534178 -180 0 0 0.273792,-0.466 z"
   class="st6"
   id="path94"
   inkscape:connector-curvature="0"
   style="fill:#949494;stroke:none;stroke-width:31.66209984;stroke-linecap:butt" />
				</g>
				<g
   id="shape20361-31"
   transform="translate(43.0464,-0.0031725)">
					<title
   id="title97">path26</title>
					<path
   d="m 0.05,115.51 2.21,3.77 a 0.538583,0.531072 -180 0 0 0.547584,0.26058 0.507087,0.500015 -180 0 0 0.271412,-0.0704 L 9.48,115.81 l 3.97,-2.28 a 0.551181,0.543495 -180 0 0 0.191658,-0.18664 L 13.59,113.31 a 0.544882,0.537284 -180 0 0 0.05952,-0.23946 L 8.17,109.94 a 0.525984,0.518649 0 0 1 -0.271418,0.46248 L 0.26,114.77 a 0.548032,0.540389 -180 0 0 -0.204747,0.7301 z m 0,-45.79 2.21,-3.77 a 0.541732,0.534178 0 0 1 0.547584,-0.260588 0.507087,0.500015 0 0 1 0.271412,0.07043 L 9.48,69.42 13.45,71.7 a 0.541732,0.534178 0 0 1 0.191658,0.188984 L 13.59,71.92 a 0.519685,0.512438 0 0 1 0.05952,0.241802 L 8.16,75.3 A 0.532283,0.524861 -180 0 0 7.888588,74.83752 L 0.25,70.46 A 0.551181,0.543495 0 0 1 0.0512,69.727546 Z"
   class="st7"
   id="path99"
   inkscape:connector-curvature="0"
   style="fill:#a3a3a3;stroke:none;stroke-width:31.66209984;stroke-linecap:butt" />
				</g>
			</g>
		</g>
	</g>
</svg>

<?xml version="1.0" encoding="UTF-8" standalone="no"?>
<!DOCTYPE svg PUBLIC "-//W3C//DTD SVG 1.1//EN" "http://www.w3.org/Graphics/SVG/1.1/DTD/svg11.dtd">
<!-- Generated by Microsoft Visio, SVG Export Disk Pool.svg Page-1 -->
<svg xmlns="http://www.w3.org/2000/svg" xmlns:xlink="http://www.w3.org/1999/xlink" xmlns:ev="http://www.w3.org/2001/xml-events"
		width="1.66691in" height="1.6603in" viewBox="0 0 120.017 119.542" xml:space="preserve" color-interpolation-filters="sRGB"
		class="st8">
	<style type="text/css">
	<![CDATA[
		.st1 {fill:#0078d4;stroke:none;stroke-linecap:butt;stroke-width:31.6621}
		.st2 {fill:url(#grad0-8);stroke:none;stroke-linecap:butt;stroke-width:31.6621}
		.st3 {fill:#005ba1;stroke:none;stroke-linecap:butt;stroke-width:31.6621}
		.st4 {fill:#5ea0ef;stroke:none;stroke-linecap:butt;stroke-width:31.6621}
		.st5 {fill:url(#grad0-20);stroke:none;stroke-linecap:butt;stroke-width:31.6621}
		.st6 {fill:#949494;stroke:none;stroke-linecap:butt;stroke-width:31.6621}
		.st7 {fill:#a3a3a3;stroke:none;stroke-linecap:butt;stroke-width:31.6621}
		.st8 {fill:none;fill-rule:evenodd;font-size:12px;overflow:visible;stroke-linecap:square;stroke-miterlimit:3}
	]]>
	</style>

	<defs id="Patterns_And_Gradients">
		<linearGradient id="grad0-8" x1="0" y1="0" x2="1" y2="0" gradientTransform="rotate(69.097459075301 0.5 0.5)">
			<stop offset="0" stop-color="#5ea0ef" stop-opacity="1"/>
			<stop offset="0.2" stop-color="#83b9f9" stop-opacity="1"/>
			<stop offset="0.5" stop-color="#83b9f9" stop-opacity="1"/>
			<stop offset="0.75" stop-color="#83b9f9" stop-opacity="1"/>
			<stop offset="0.9" stop-color="#6facf4" stop-opacity="1"/>
			<stop offset="1" stop-color="#5ea0ef" stop-opacity="1"/>
		</linearGradient>
		<linearGradient id="grad0-20" x1="0" y1="0" x2="1" y2="0" gradientTransform="rotate(69.082570960997 0.5 0.5)">
			<stop offset="0" stop-color="#5ea0ef" stop-opacity="1"/>
			<stop offset="0.2" stop-color="#83b9f9" stop-opacity="1"/>
			<stop offset="0.5" stop-color="#83b9f9" stop-opacity="1"/>
			<stop offset="0.75" stop-color="#83b9f9" stop-opacity="1"/>
			<stop offset="0.9" stop-color="#6facf4" stop-opacity="1"/>
			<stop offset="1" stop-color="#5ea0ef" stop-opacity="1"/>
		</linearGradient>
	</defs>
	<g>
		<title>Page-1</title>
		<g id="group19892-1" transform="translate(31.6621,-34.0157)">
			<title>Disk Pool.19892</title>
			<g id="group19893-2">
				<title>layer1</title>
				<g id="shape19894-3" transform="translate(9.80499,-20.3699)">
					<title>path2</title>
					<path d="M9.78 118.82 A5.08661 5.01568 0 0 1 7.57 114.89 L7.57 112.63 A4.13543 4.07776 0 0 1 7.52 111.86 C7.52
								 108.98 10.29 106.92 14.15 105.71 L13.8 105.71 C6.18 105.71 0 108.22 0 111.3 A2.49134 2.4566 -180
								 0 0 0.07 111.88 L0.07 114.33 C0.07 116.72 3.87 118.74 9.04 119.54 A6.75591 6.66169 0 0 1 9.78 118.82
								 L9.78 118.82 Z" class="st1"/>
				</g>
				<g id="shape19895-5" transform="translate(9.86772,-34.0722)">
					<title>path4</title>
					<path d="M22.84 118.16 C25.74 117.13 27.6 115.64 27.6 113.97 C27.6 110.88 21.42 108.38 13.8 108.38 C6.18 108.38
								 0 110.88 0 113.97 C0 117.06 6.1 119.52 13.65 119.54 A30.0472 29.6282 0 0 1 22.84 118.16 Z"
							class="st2"/>
				</g>
				<g id="shape19896-9" transform="translate(19.4362,-38.4853)">
					<title>ellipse6</title>
					<ellipse cx="4.58268" cy="118.309" rx="4.58268" ry="1.23296" class="st3"/>
				</g>
				<g id="shape19897-11" transform="translate(9.88713,-31.4168)">
					<title>path8</title>
					<path d="M23.08 115.5 A33.9843 33.5103 0 0 1 27.14 115.76 A2.66142 2.6243 -180 0 0 27.57 114.5 L27.57 111.2 C27.57
								 112.95 25.62 114.48 22.5 115.51 L23.08 115.5 ZM14.05 116.77 L13.86 116.77 C6.17 116.77 0 114.26
								 0.06 111.18 L0.06 114.34 C0.06 116.72 3.82 118.73 8.95 119.54 A12.4189 12.2457 0 0 1 14.05 116.77
								 L14.05 116.77 Z" class="st4"/>
				</g>
				<g id="shape19898-13" transform="translate(19.1024,-8.41311)">
					<title>path10</title>
					<path d="M27.6 110.92 C27.6 107.84 21.42 105.33 13.8 105.33 C6.18 105.33 0 107.84 0 110.92 A2.46614 2.43175 -180
								 0 0 0.07 111.5 L0.07 113.95 C0.07 117.04 6.4 119.54 13.87 119.54 C21.34 119.54 27.42 117.09 27.67
								 114.1 L27.6 111.77 L27.6 110.92 Z" class="st1"/>
				</g>
				<g id="shape19899-15" transform="translate(28.6678,-15.8728)">
					<title>ellipse12</title>
					<ellipse cx="4.58268" cy="118.309" rx="4.58268" ry="1.23296" class="st3"/>
				</g>
				<g id="shape19900-17" transform="translate(19.1653,-22.4663)">
					<title>ellipse14</title>
					<ellipse cx="13.8016" cy="113.955" rx="13.8016" ry="5.58713" class="st5"/>
				</g>
				<g id="shape19901-21" transform="translate(28.7339,-26.8919)">
					<title>ellipse16</title>
					<ellipse cx="4.58268" cy="118.309" rx="4.58268" ry="1.23296" class="st3"/>
				</g>
				<g id="shape19902-23" transform="translate(19.0907,-19.3109)">
					<title>path18</title>
					<path d="M13.87 116.37 C21.51 116.37 27.67 113.86 27.67 110.78 L27.67 114.1 C27.41 117.09 21.34 119.54 13.87
								 119.54 C6.4 119.54 0.07 117.04 0.07 113.95 L0.07 110.78 C0 113.86 6.18 116.37 13.87 116.37 Z"
							class="st4"/>
				</g>
				<g id="shape19903-25" transform="translate(0,-0.0248295)">
					<title>path20</title>
					<path d="M0 113.09 a0.548032 0.540389 -180 0 0 0.271411 0.466002 L4.12 115.76 L10.65 119.49 a0.532283 0.524861
								 -180 0 0 0.730908 -0.188985 L13.59 115.52 a0.551181 0.543495 -180 0 0 -0.198799 -0.732453 L5.74
								 110.44 a0.532283 0.524861 0 0 1 -0.271412 -0.462473 L5.47 75.32 a0.532283 0.524861 0 0 1 0.271412
								 -0.462475 L13.39 70.48 a0.551181 0.543495 -180 0 0 0.198799 -0.730102 L11.39 65.97 a0.541732 0.534178
								 -180 0 0 -0.733289 -0.201896 L4.25 69.44 L0.27 71.72 a0.541732 0.534178 -180 0 0 -0.271411 0.46248
								 L0 113.09 Z" class="st6"/>
				</g>
				<g id="shape19904-27" transform="translate(0.0003547,0)">
					<title>path22</title>
					<path d="M13.59 69.72 L11.39 65.95 a0.538583 0.531072 -180 0 0 -0.547585 -0.260584 a0.507087 0.500015 -180 0
								 0 -0.271411 0.0704259 L4.17 69.42 L0.19 71.7 a0.551181 0.543495 -180 0 0 -0.191657 0.186636 L0.06
								 71.92 a0.544882 0.537284 -180 0 0 -0.0595222 0.239454 L5.48 75.29 a0.525984 0.518649 0 0 1 0.271412
								 -0.46248 L13.39 70.45 a0.551181 0.543495 -180 0 0 0.198799 -0.730106 L13.59 69.72 ZM13.59 115.51
								 L11.38 119.28 a0.541732 0.534178 0 0 1 -0.54759 0.260584 a0.507087 0.500015 0 0 1 -0.271411 -0.0704317
								 L4.16 115.81 L0.19 113.53 a0.56063 0.552812 0 0 1 -0.191657 -0.188982 L0.06 113.31 a0.519685 0.512438
								 0 0 1 -0.0595222 -0.241802 L5.48 109.93 a0.532283 0.524861 -180 0 0 0.271412 0.462476 L13.39 114.77
								 a0.551181 0.543495 0 0 1 0.198799 0.73245 L13.59 115.51 Z" class="st7"/>
				</g>
				<g id="shape19905-29" transform="translate(43.0469,-0.0155476)">
					<title>path24</title>
					<path d="M13.65 72.17 a0.548032 0.540389 -180 0 0 -0.271409 -0.466001 L9.53 69.51 L2.99 65.77 a0.532283 0.524861
								 -180 0 0 -0.730909 0.188984 L0.05 69.73 a0.551181 0.543495 -180 0 0 0.1988 0.732454 L7.89 74.83
								 a0.532283 0.524861 0 0 1 0.271409 0.462475 L8.16 109.95 a0.532283 0.524861 0 0 1 -0.271409 0.462482
								 L0.25 114.79 a0.551181 0.543495 -180 0 0 -0.1988 0.730106 L2.26 119.29 a0.541732 0.534178 -180 0
								 0 0.733289 0.201897 L9.39 115.83 L13.37 113.55 a0.541732 0.534178 -180 0 0 0.273792 -0.465996 L13.65
								 72.17 Z" class="st6"/>
				</g>
				<g id="shape19906-31" transform="translate(43.0464,-0.0031725)">
					<title>path26</title>
					<path d="M0.05 115.51 L2.26 119.28 a0.538583 0.531072 -180 0 0 0.547584 0.260584 a0.507087 0.500015 -180 0 0
								 0.271412 -0.0704262 L9.48 115.81 L13.45 113.53 a0.551181 0.543495 -180 0 0 0.191658 -0.186638 L13.59
								 113.31 a0.544882 0.537284 -180 0 0 0.0595227 -0.239456 L8.17 109.94 a0.525984 0.518649 0 0 1 -0.271418
								 0.462482 L0.26 114.77 a0.548032 0.540389 -180 0 0 -0.204747 0.7301 L0.05 115.51 ZM0.05 69.72 L2.26
								 65.95 a0.541732 0.534178 0 0 1 0.547584 -0.260588 a0.507087 0.500015 0 0 1 0.271412 0.0704306 L9.48
								 69.42 L13.45 71.7 a0.541732 0.534178 0 0 1 0.191658 0.188984 L13.59 71.92 a0.519685 0.512438 0 0
								 1 0.0595227 0.241802 L8.16 75.3 a0.532283 0.524861 -180 0 0 -0.271412 -0.46248 L0.25 70.46 a0.551181
								 0.543495 0 0 1 -0.1988 -0.732454 L0.05 69.72 Z" class="st7"/>
				</g>
			</g>
		</g>
	</g>
</svg>
